X:2329
T:Yernagh Keoie 
C:J Kelly, Baldrine
C:Traditional
O:Isle of Man
Z:Collected by Mona Douglas
B:Kiaull Vannin #329 
M:4/4
L:1/4 
Q:100 
K:D 
B>c dc|B A B2|A FF G/A/|B F FA|B>c dc|B A B2|A FFG/A/|B F F A| 
B c d c|B A/c/ B2|d>e f e/d/|e c (dB)|d>e f g/f/|e d c2|B>c d e/c/|B A/c/ B2|| 
%%text alternate version of bars 11 and 12 %%endtext 
d>e f a|b a/c'/ b| 

